!!!OTL: Die Rettung.
!!!OTL-incipit: AUF DEM SCHEITERHAUFEN KLAGET BITERLICH DIE KOENIGIN
!!!ARE: Europa, Mitteleuropa, Deutschland, Niederrhein
!!!SCT: Z1114
!!!TXL: @@DE
!!!YEM: Copyright 1995, estate of Helmut Schaffrath.
**kern	**text
*ICvox	*
*M3/4	*
*k[f#]	*
*e:	*
!LO:TX:a:t=Ʒur Hirlandaſage, vom Niederrhein.	!
{8g	Auf
8a	dem
=1	=1
4b	Scheiter-
4b	.
8cc	-haufen
8b	.
=2	=2
8bL	kla-
8aJ	.
4a}	-get
{8b/	bit-
8a	-ter-
=3	=3
4g	-lich
4b/	die
8a	Kö-
8g	-ni-
=4	=4
(4g	-gin:
4f#);}	.
{8g	ach,
8f#	kein
=5	=5
4e	Rit-
4g	-ter
8f#	der
8g	ʒu
=6	=6
8bL	käm-
8aJ	.
4a}	-pfen
{8g	für
8f#	die
=7	=7
4e	Un-
4g	-ſchuld
8f#	da
8d#	er-
=8	=8
2e;}	-ſchien!
==	==
!!!Ag: Romanze, Ballade, Hirlanda - Sage
!!!ONB: ESAC (Essen Associative Code) Database: ZUCCAL
!!!AMT: simple triple
!!!AIN: vox
!!!EED: Helmut Schaffrath
!!!EEV: 1.0
!!!GTL: II. Gau- Leuschen.
!!!URL-scan: https://www.digitale-sammlungen.de/de/view/bsb11160573?page=244
!!!ENC: Anna Maria Matuszewska
!!!EEV: 2025/02/04
*-	*-
